X:1
T:The Blackthorn Stick
C:Anonymous; arr. T. S. Macdonald
M:6/8
K:A
%%staves { 1 2 }
V:1
e | aga faf | ecA BAF | EAA GAB | cBA B2 e |
aga baf | ecA BAF | EAA GAB | cAA A2 :|
|: e | fee aee | fee aee | fee agf | edc B2 e |
aga baf | ecA BAF | EAA GAB | cAA A2 :|]
V:2
z | "1"A,3 A,3 | A,3 "2"B,3 | "1"A,3 "2"B,3 | "1"E3 "3"G3 |
    "0"A3 "1"A,3 | A,3 "2"B,3 | "1"A,3 "2"B,3 | "3"C3 "1"A,2 :|
|: z | "1"A,3 A,3 | A,3 A,3 | A,3 "2"B,3 | "1"E3 "3"G3 |
    "0"A3 "1"A,3 | A,3 "2"B,3 | "1"A,3 "2"B,3 | "3"C3 "1"A,2 :|

